packages/tokens/icons/file/size24Px.svg

<svg viewBox="0 0 24 24" fill="none" xmlns="http://www.w3.org/2000/svg" width="1em" height="1em"><path d="M18.875 7.03846C19.1511 7.03846 19.375 6.8146 19.375 6.53846C19.375 6.26232 19.1511 6.03846 18.875 6.03846V7.03846ZM18.9142 5.91421L18.5607 6.26777L18.9142 5.91421ZM16.0858 3.08579L16.4393 2.73223L16.0858 3.08579ZM17.5 21L6.5 21L6.5 22L17.5 22V21ZM5 19.5L5 4.5H4L4 19.5H5ZM6.5 3L14.6716 3V2L6.5 2V3ZM19 7.32843L19 19.5H20L20 7.32843H19ZM15 2.90385V5.53846H16V2.90385H15ZM16.5 7.03846L18.875 7.03846V6.03846H16.5V7.03846ZM15.7322 3.43934L18.5607 6.26777L19.2678 5.56066L16.4393 2.73223L15.7322 3.43934ZM15 5.53846C15 6.36689 15.6716 7.03846 16.5 7.03846V6.03846C16.2239 6.03846 16 5.8146 16 5.53846H15ZM20 7.32843C20 6.66539 19.7366 6.0295 19.2678 5.56066L18.5607 6.26777C18.842 6.54907 19 6.9306 19 7.32843H20ZM14.6716 3C15.0694 3 15.4509 3.15804 15.7322 3.43934L16.4393 2.73223C15.9705 2.26339 15.3346 2 14.6716 2V3ZM6.5 21C5.67157 21 5 20.3284 5 19.5H4C4 20.8807 5.11929 22 6.5 22L6.5 21ZM17.5 22C18.8807 22 20 20.8807 20 19.5H19C19 20.3284 18.3284 21 17.5 21V22ZM5 4.5C5 3.67157 5.67157 3 6.5 3V2C5.11929 2 4 3.11929 4 4.5H5Z" fill="currentColor"/><line x1="7.5" y1="8.5" x2="15.5" y2="8.5" stroke="currentColor" stroke-linecap="round"/><line x1="7.5" y1="12.5" x2="15.5" y2="12.5" stroke="currentColor" stroke-linecap="round"/><path d="M7.5 16.5L13.5 16.5" stroke="currentColor" stroke-linecap="round"/></svg>

<svg xmlns="http://www.w3.org/2000/svg" fill="none" viewBox="0 0 24 24" width="1em" height="1em"><path fill="currentColor" d="M18.875 7.038a.5.5 0 0 0 0-1v1Zm.04-1.124-.354.354.353-.354Zm-2.83-2.828.354-.354-.353.354ZM17.5 21h-11v1h11v-1ZM5 19.5v-15H4v15h1ZM6.5 3h8.172V2H6.5v1ZM19 7.328V19.5h1V7.328h-1Zm-4-4.424v2.634h1V2.904h-1Zm1.5 4.134h2.375v-1H16.5v1Zm-.768-3.599 2.829 2.829.707-.707-2.829-2.829-.707.707ZM15 5.54a1.5 1.5 0 0 0 1.5 1.5v-1a.5.5 0 0 1-.5-.5h-1Zm5 1.79a2.5 2.5 0 0 0-.732-1.768l-.707.707A1.5 1.5 0 0 1 19 7.328h1ZM14.672 3a1.5 1.5 0 0 1 1.06.44l.707-.708A2.5 2.5 0 0 0 14.672 2v1ZM6.5 21A1.5 1.5 0 0 1 5 19.5H4A2.5 2.5 0 0 0 6.5 22v-1Zm11 1a2.5 2.5 0 0 0 2.5-2.5h-1a1.5 1.5 0 0 1-1.5 1.5v1ZM5 4.5A1.5 1.5 0 0 1 6.5 3V2A2.5 2.5 0 0 0 4 4.5h1Z"/><path stroke="currentColor" stroke-linecap="round" d="M7.5 8.5h8m-8 4h8m-8 4h6"/></svg>
